X:12108
T:Nun quiero que me quieran (CT 194)
C:Tradicional
S:Música Tradicional Asturiana, (C) Tello & Tito. Asturies, 2001.
S:http://pagina.de/MusTradAst <telloytito@asturies.org>
N:Canción de empleo indeterminado, dictada por Leandra González Zuazua, de cincuenta años, de Uviéu.
N:Dice que la aprendió en Cangas d'Onís.
O:Cangas d'Onís
A:Asturies
Z:Cancioneru de Torner 194
M:2/4
L:1/8
Q:1/4=132
W:No quiero que me quieran
W:ni ser querida;
W:quiero ser de los hombres
W:aborrecida.
W:
W:Estribillu:
W:
W:Por el aire,
W:por el aire
W:van los supiros
W:de mi amante,
W:por el aire van,
W:por el aire.
K:G
Bc
|d2 cd|(c3/2B/4A/4) B2|dd cd|(c3/2B/4A/4) Bc|
d2 cd|(c3/2B/4A/4) B2|cc AB|(A3/2G/4F/4) GA|G2 G2|
cc AB|(A3/2(3B/4A/4G/4) FG|AA AB|(A3/2B/4A/4) G2|
cc AB|(AB/4A/4G/4F/4) GA|G2 G2-|G2||


